X:1
T:Go Forth for God
T:Tune: William J. Maher, 1863 Text under copyright; for copyrighted material see Psalter Hymnal 325
T:10 10 10 10 ANIMA CHRISTI www.hymnary.org/text/go_forth_for_god_go_to_the_world_in_peac
T:Go Forth for God
T:This tune is in the public domain. You may freely use this score for personal and congregational worship. If you reproduce the score, please credit Hymnary.org as the source. 
T:This tune is in the public domain. You may freely use this score for personal and congregational worship. If you reproduce the score, please credit Hymnary.org as the source. 
Z:This tune is in the public domain. You may freely use this score for personal and congregational worship. If you reproduce the score, please credit Hymnary.org as the source.
%%score ( 1 2 ) ( 3 4 )
L:1/8
M:4/4
K:F
V:1 treble nm="SOPRANO ALTO" snm="S. A."
V:2 treble 
V:3 bass nm="TENOR BASS" snm="T. B."
V:4 bass 
V:1
 C4 F2 F2 | F4 E4 | F2 F2 G2 G2 | A8 | A4 G2 A2 | F4 E4 | E2 F2 E2 D2 | C8 | c4 B2 c2 | A4 G4 | %10
 c2 c2 B2 c2 | A8 |1 (G2 B2) A2 G2 | F4 B4 | A2 A2 G2 G2 | F8 |] %16
V:2
 C4 D2 E2 | (D2 B,2) C4 | C2 B,A, D2 C2 | C8 | (C2 D2) E2 E2 | (C2 =B,2) C4 | C2 C2 C2 =B,2 | G,8 | %8
 (C2 E2) F2 G2 | (G2 F2) E4 | E2 ^F2 G2 G2 | =F8 |1 E4 E2 E2 | (E2 D2) D4 | ^C2 D2 D2 =CB, | A,8 |] %16
V:3
 A,4 A,2 A,2 | G,4 G,4 | F,2 F,2 F,2 E,2 | F,8 | (A,2 =B,2) C2 C2 | (A,2 G,2) G,4 | %6
 A,2 A,2 G,3 F, | E,8 | G,4 B,2 G,2 | C4 C4 | C2 D2 D2 C2 | C8 |1 (B,2 D2) C2 B,2 | A,4 (G,2 F,2) | %14
 E,2 F,2 F,2 E,2 | C,8 |] %16
V:4
 (F,2 E,2) D,2 C,2 | (B,,2 G,,2) (C,2 B,,2) | A,,2 D,2 B,,2 C,2 | F,,8 | F,4 E,2 C,2 | %5
 (D,2 G,,2) (C,2 =B,,2) | A,,2 D,2 G,2 G,,2 | C,8 | (E,2 C,2) D,2 E,2 | F,4 (C2 B,2) | %10
 A,2 D,2 G,2 E,2 | F,8 |1 C,4 C,2 C,2 | D,4 G,,4 | A,,2 D,2 B,,2 C,2 | F,,8 |] %16

